src/components/atoms/Icon/icons/quote-xLarge.svg

<?xml version="1.0" encoding="UTF-8"?>
<svg width="48px" height="48px" viewBox="0 0 48 48" version="1.1" xmlns="http://www.w3.org/2000/svg" xmlns:xlink="http://www.w3.org/1999/xlink">
    <!-- Generator: Sketch 52.5 (67469) - http://www.bohemiancoding.com/sketch -->
    <title>Quote-xLarge</title>
    <desc>Created with Sketch.</desc>
    <defs>
        <rect id="quote-xLarge-path-1" x="0" y="0" width="48" height="48"></rect>
    </defs>
    <g id="Quote-xLarge" stroke="none" stroke-width="1" fill="none" fill-rule="evenodd">
        <g>
            <mask id="quote-xLarge-mask-2" fill="white">
                <use xlink:href="#quote-xLarge-path-1"></use>
            </mask>
            <g id="quote-xLarge-Rectangle" fill-rule="nonzero"></g>
            <path d="M20.4052897,40.5441409 L6.00881611,40.5441409 L6.00881611,25.0324476 C5.9412267,22.8019969 6.26227161,20.7067564 6.97196047,18.7466634 C7.68164934,16.7865703 8.67857826,15.0630661 9.96277716,13.5760989 C11.2469761,12.0891318 12.7846122,10.8556434 14.5757317,9.87559691 C16.3668512,8.89555038 18.3100178,8.27035766 20.4052897,8 L20.4052897,14.6913187 C17.8368919,15.5699811 16.0795934,16.8710578 15.1333416,18.5945879 C14.1870898,20.318118 13.713971,22.4302556 13.713971,24.931064 L20.4052897,24.931064 L20.4052897,40.5441409 Z M42,40.5441409 L27.6035264,40.5441409 L27.6035264,25.0324476 C27.535937,22.8019969 27.8569819,20.7067564 28.5666708,18.7466634 C29.2763597,16.7865703 30.2732886,15.0630661 31.5574875,13.5760989 C32.8416864,12.0891318 34.3793225,10.8556434 36.170442,9.87559691 C37.9615616,8.89555038 39.9047281,8.27035766 42,8 L42,14.6913187 C39.4316022,15.5699811 37.6743038,16.8710578 36.7280519,18.5945879 C35.7818001,20.318118 35.3086813,22.4302556 35.3086813,24.931064 L42,24.931064 L42,40.5441409 Z" id="“" fill="currentcolor" mask="url(#quote-xLarge-mask-2)"></path>
        </g>
    </g>
</svg>

<svg width="48" height="48" xmlns="http://www.w3.org/2000/svg" xmlns:xlink="http://www.w3.org/1999/xlink"><defs><path id="quote-xLarge-a" d="M0 0h48v48H0z"/></defs><g fill="none" fill-rule="evenodd"><mask id="quote-xLarge-b" fill="#fff"><use xlink:href="#quote-xLarge-a"/></mask><path d="M20.405 40.544H6.01V25.032c-.068-2.23.253-4.325.963-6.285s1.707-3.684 2.99-5.17a16.491 16.491 0 0 1 4.614-3.701A16.404 16.404 0 0 1 20.406 8v6.691c-2.57.879-4.326 2.18-5.273 3.904-.946 1.723-1.419 3.835-1.419 6.336h6.691v15.613zm21.595 0H27.604V25.032c-.068-2.23.253-4.325.963-6.285s1.706-3.684 2.99-5.17a16.491 16.491 0 0 1 4.613-3.701A16.404 16.404 0 0 1 42 8v6.691c-2.568.879-4.326 2.18-5.272 3.904-.946 1.723-1.42 3.835-1.42 6.336H42v15.613z" fill="currentcolor" mask="url(#quote-xLarge-b)"/></g></svg>
